X: 7
T: Sleepy Maggie
R: reel
M: 4/4
L: 1/8
K: Bmin
|: f2 Bb fec<e | f2 a2 c<Ac<e | f2 Bb fec<e | f>ga>f e<Ac<e :||: fB B2 fBc<e | fB B2 c<Ac<e | fB B2 fBc<e | f>ga>f e<Ac<e :|


Tune 787	Setting 13920

